Mebel/img/group.svg

<svg width="40" height="40" viewBox="0 0 40 40" fill="none" xmlns="http://www.w3.org/2000/svg">
<path d="M39.6373 28.3726L34.1093 22.8446C35.1782 20.7182 35.7812 18.319 35.7812 15.7812C35.7812 7.07945 28.7018 0 20 0C11.2982 0 4.21871 7.07945 4.21871 15.7812C4.21871 18.319 4.82176 20.7182 5.89059 22.8446L0.362699 28.3726C0.0723866 28.6628 -0.0448008 29.0838 0.0536366 29.4823C0.152152 29.8808 0.451918 30.1987 0.843949 30.3204L7.6016 32.4179L9.69903 39.1755C9.82074 39.5676 10.1387 39.8673 10.5372 39.9659C10.6303 39.9888 10.7246 40.0001 10.8183 40.0001C11.1254 40.0001 11.4246 39.8792 11.6469 39.6568L19.7444 31.5593C19.8296 31.5606 19.9146 31.5626 20 31.5626C20.0855 31.5626 20.1705 31.5607 20.2557 31.5593L28.3531 39.6567C28.5755 39.8791 28.8747 40 29.1817 40C29.2753 40 29.3696 39.9888 29.4628 39.9658C29.8613 39.8673 30.1793 39.5675 30.301 39.1755L32.3984 32.4178L39.156 30.3203C39.5482 30.1986 39.8478 29.8807 39.9464 29.4822C40.0447 29.0838 39.9275 28.6628 39.6373 28.3726ZM20 2.34375C27.4094 2.34375 33.4375 8.3718 33.4375 15.7812C33.4375 23.1907 27.4094 29.2188 20 29.2188C15.0801 29.2188 10.7701 26.5605 8.42863 22.6054C8.39059 22.5122 8.33902 22.4235 8.27598 22.3407C7.18559 20.3994 6.56246 18.1619 6.56246 15.7812C6.56246 8.3718 12.5905 2.34375 20 2.34375ZM11.3621 36.627L9.65723 31.1341C9.54277 30.7654 9.2541 30.4767 8.88535 30.3623L3.39239 28.6574L7.13621 24.9136C9.39996 28.0931 12.8118 30.4007 16.7614 31.2278L11.3621 36.627ZM31.1146 30.3623C30.7459 30.4767 30.4572 30.7654 30.3428 31.1341L28.6379 36.627L23.2386 31.2277C27.1882 30.4005 30.6 28.093 32.8638 24.9134L36.6076 28.6573L31.1146 30.3623Z" fill="#B89A61"/>
<path d="M20 27.0312C26.2033 27.0312 31.25 21.9845 31.25 15.7812C31.25 9.57797 26.2034 4.53125 20 4.53125C13.7966 4.53125 8.75 9.57797 8.75 15.7812C8.75 21.9845 13.7967 27.0312 20 27.0312ZM20 6.875C24.9109 6.875 28.9062 10.8703 28.9062 15.7812C28.9062 20.6922 24.9109 24.6875 20 24.6875C15.0891 24.6875 11.0938 20.6922 11.0938 15.7812C11.0938 10.8703 15.0891 6.875 20 6.875Z" fill="#B89A61"/>
<path d="M13.6915 14.9577L15.6306 17.4003L15.4975 20.5162C15.4807 20.9086 15.6618 21.2834 15.9796 21.5142C16.2974 21.7452 16.7097 21.8014 17.0777 21.6642L20 20.5748L22.9222 21.6641C23.055 21.7137 23.1936 21.738 23.3314 21.738C23.5755 21.738 23.8172 21.6617 24.0203 21.5141C24.3381 21.2833 24.5191 20.9085 24.5023 20.5161L24.3693 17.4002L26.3083 14.9577C26.5525 14.65 26.6264 14.2405 26.505 13.867C26.3837 13.4934 26.0832 13.2055 25.7048 13.1002L22.7004 12.2638L20.9765 9.66477C20.7594 9.33742 20.3927 9.14062 20 9.14062C19.6072 9.14062 19.2405 9.33742 19.0234 9.66477L17.2996 12.2638L14.2951 13.1002C13.9167 13.2055 13.6163 13.4934 13.4949 13.867C13.3735 14.2405 13.4473 14.6501 13.6915 14.9577ZM18.3489 14.4045C18.6204 14.3289 18.8554 14.158 19.0112 13.9232L20 12.4326L20.9887 13.9233C21.1444 14.158 21.3796 14.3289 21.6511 14.4045L23.3743 14.8841L22.2621 16.2852C22.087 16.5059 21.9971 16.7823 22.0092 17.0638L22.0855 18.8509L20.4094 18.226C20.2775 18.1768 20.1387 18.1522 20.0001 18.1522C19.8615 18.1522 19.7228 18.1768 19.5908 18.226L17.9147 18.8509L17.9911 17.0638C18.003 16.7823 17.9132 16.5059 17.7381 16.2852L16.6259 14.8841L18.3489 14.4045Z" fill="#B89A61"/>
</svg>

<svg width="40" height="40" fill="none" xmlns="http://www.w3.org/2000/svg"><path d="M39.637 28.373l-5.528-5.528a15.683 15.683 0 001.672-7.064C35.781 7.08 28.701 0 20 0 11.298 0 4.219 7.08 4.219 15.781c0 2.538.603 4.937 1.672 7.064L.363 28.373a1.172 1.172 0 00.48 1.947l6.759 2.098 2.097 6.758a1.172 1.172 0 001.948.48l8.097-8.097c.086.002.17.004.256.004.085 0 .17-.002.256-.004l8.097 8.098a1.172 1.172 0 001.948-.481l2.097-6.758 6.758-2.098a1.172 1.172 0 00.481-1.947zM20 2.343c7.41 0 13.438 6.029 13.438 13.438 0 7.41-6.029 13.438-13.438 13.438-4.92 0-9.23-2.659-11.571-6.614a1.164 1.164 0 00-.153-.264 13.355 13.355 0 01-1.714-6.56c0-7.41 6.029-13.437 13.438-13.437zm-8.638 34.284l-1.705-5.493a1.172 1.172 0 00-.772-.772l-5.493-1.705 3.744-3.743a15.817 15.817 0 009.625 6.314l-5.399 5.399zm19.753-6.265a1.172 1.172 0 00-.772.772l-1.705 5.493-5.4-5.4a15.817 15.817 0 009.626-6.314l3.744 3.744-5.493 1.705z" fill="#B89A61"/><path d="M20 27.031c6.203 0 11.25-5.046 11.25-11.25 0-6.203-5.047-11.25-11.25-11.25S8.75 9.578 8.75 15.781c0 6.204 5.047 11.25 11.25 11.25zm0-20.156c4.91 0 8.906 3.995 8.906 8.906 0 4.911-3.995 8.906-8.906 8.906-4.91 0-8.906-3.995-8.906-8.906 0-4.91 3.995-8.906 8.906-8.906z" fill="#B89A61"/><path d="M13.691 14.958l1.94 2.442-.133 3.116a1.172 1.172 0 001.58 1.148L20 20.574l2.922 1.09a1.169 1.169 0 001.098-.15c.318-.23.5-.605.482-.998L24.37 17.4l1.94-2.442a1.172 1.172 0 00-.604-1.858l-3.005-.836-1.723-2.6a1.172 1.172 0 00-1.954 0l-1.723 2.6-3.005.836a1.172 1.172 0 00-.604 1.858zm4.658-.553c.271-.076.506-.247.662-.482l.989-1.49.989 1.49c.155.235.39.406.662.482l1.723.48-1.112 1.4c-.175.22-.265.497-.253.779l.076 1.787-1.676-.625a1.172 1.172 0 00-.818 0l-1.676.625.076-1.787a1.173 1.173 0 00-.253-.779l-1.112-1.4 1.723-.48z" fill="#B89A61"/></svg>
